X: 1
T: The Galtee Reel
T: The Dangerous Reel
M: 4/4
L: 1/8
R: reel
K: Ador
aged cAGA|EA~A2 cAAg|ageB cedc|~B3d dBGB|
aged cAGA|EA~A2 aAga|bgaf gbaf|1 gedB cAAg:|2 gedB cAAB||
|:c3A (3Bcd ed|~c3d dBGB|cAAB cded|cABG EAAB|
cAAB (3Bcd ed|cA~A2 aAga|bgaf ~g2af|1 gedB cAAB:|2 gedB cAAg||
